X:1
T:Vive L'Amour
M:6/8
L:1/8
K:G
 D| GGG GFE| DEC B,3| GGG A2 F| G3- G2 D| GGG GFE| DEC B,3| GGG A2 F|\
 G3- G2 z| BBB BBB| ccc c3| AAA AAA| BBB B3| GGG G3| AAA A3| FFF E2 F|\
 G3- G2||

